X: 42
T: La Belle Veuve.
%R: reel
Z: 2015 John Chambers <jc:trillian.mit.edu>
S: http://books.google.com/books?id=ipV0y26Vq8EC
B: Giovanni Andrea Gallini "A New Collection of Forty-Four Cotillions" c.1755 #42
M: 2/4
L: 1/16
K: A
% - - - - - - - - - - - - - - - - - - - - - - - - - - - - -
% Voice 1 staff breaks arranged to fit a wider page:
V: 1
ed |\
cdec A2c2 | BAGF E2B2 | cAce a2c2 | c2B2 z2B2 |\
c2ac B2g2 | A2fA G2e2 | c2a2 gef^d | e6 :|
|: BA |\
GABG E2d2 | cdec A2=g2 | fedc dcBA | {A}G4 z2e2 |\
f2df e2a2 | d2Bd c2e2 | F2d2 cABG | A6 :|
M: 6/8
K: Am
|: "Mineur"AB |\
cBAc B2E2 | FEDF E2A2 | B,2F2E2D2 | C2B,C A,2AB |\
cBAc B2E2 | FEDF E2A2 | ^G2A2 d2c2 | B6 :|
|: ed |\
cdec A2G2 | FGAF D2dc | BcdB G2F2 | EFGE C2cB |\
A2Bc dcBA | ^G2E2A2C2 | B,3F EDCB, | A,6 :|
% - - - - - - - - - - - - - - - - - - - - - - - - - - - - -
% Voice 2 preserves the original staff layout:
V: 2 clef=bass middle=d
z2 |\
A4 c2A2 | e4 g2e2 | a4 c'2a2 | e'2e2g2e2 | a2f2g2e2 |
f2^d2e2g2 | a2f2b2B2 | e2B2E2 :||: z2 | e4 g2e2 | a4 c2A2 |
d2e2f2d2 | e2e'2c'2a2 | d'2b2c'2a2 | b2g2a2c2 | d2B2e2E2 | a2e2A2 :|
M: 6/8
K: Am
|: "Mineur"z2 |\
a4 e2c2 | d4 c2A2 | d2B2 e2E2 | A4 z4 | a4 e2c2 |
d4 c2A2 | e2c2B2A2 | e2B2E2 :||: z2 | A4 c2A2 | d4 f2d2 |
g4 B2G2 | c4 e2c2 | f2e2d2f2 | e2d2 c2A2 | d2B2e2E2 | a2e2A2 :|
% - - - - - - - - - - Dance description - - - - - - - - - -
%%sep 1 1 400
N: Redundant "the the" changed to "the".  "MINEUR" fixed.
%%center La Belle Veuve.
%%begintext align
%%   Le Grand Rond - - - 2/1
%%endtext
%%begintext align
%%   The Ladies are to keep their places, but
%% the Gentlemen must Allemande with each Lady
%% on his Left, until he gets half Round - - 1/2
%%endtext
%%begintext align
%%   The Gentlemen are to keep their places, but
%% the Ladies must Allemande with each Gentleman
%% on her Left, until she gets half Round - 1/2
%%endtext
%%center M I N E U R.
%%begintext align
%%   The Ladies Right hands cross, and the
%% Gentlemen join hands with their Partners in
%% form of a Double Moulinet, each Gentleman
%% Contretems and advances before his Partner,
%% then join their Left hand cross, holding their
%% Ladies with the Right in the form of a Star,
%% then Rigaudon - - - 1/1
%%endtext
%%begintext align
%%   All Eight Chass\'e up and down with Rigaudon - 1/1
%%endtext
%%begintext align
%%   Each Gentleman holding his Lady by both
%% hands, makes her turn Round to the Right,
%% and Chass\'e to the Corner in that Position, then
%% makes her turn Round to the Left and Chass\'e
%% back again - - - - 1/2
%%endtext
%%begintext align
%%   Half La Chaine with the Allemande passes - 1/2
%%endtext
%%sep 1 1 400

%%sep 2 1 500
%%sep 1 1 500

